;FLAVOR:UltiGCode
;TIME:1423
;MATERIAL:3041
;MATERIAL2:0
;NOZZLE_DIAMETER:0.4
;Generated with Cura_SteamEngine 3.4.1
M82 ;absolute extrusion mode

G92 E0
G10
;LAYER_COUNT:45
;LAYER:0
M107
G0 F4909.1 X70.801 Y106.988 Z0.27
;TYPE:SKIRT
G11
G1 F1800 X71.295 Y106.71 E0.05357
G1 X71.823 Y106.504 E0.10713
G1 X72.375 Y106.374 E0.16072
G1 X72.901 Y106.324 E0.21065
G1 X75.057 Y106.261 E0.41448
G1 X75.624 Y106.284 E0.4681
G1 X76.182 Y106.387 E0.52172
G1 X76.207 Y106.396 E0.52424
G1 X76.596 Y106.307 E0.56195
G1 X77.214 Y106.259 E0.62052
G1 X145.787 Y106.259 E7.10067
G1 X146.353 Y106.299 E7.15429
G1 X146.811 Y106.397 E7.19855
G1 X147.208 Y106.307 E7.23702
G1 X147.944 Y106.261 E7.30671
G1 X150.099 Y106.324 E7.51044
G1 X150.663 Y106.38 E7.564
G1 X151.214 Y106.515 E7.61761
G1 X151.74 Y106.727 E7.67121
G1 X152.231 Y107.01 E7.72476
G1 X152.678 Y107.359 E7.77835
G1 X153.071 Y107.768 E7.83195
G1 X153.403 Y108.228 E7.88556
G1 X153.667 Y108.73 E7.93916
G1 X153.858 Y109.264 E7.99276
G1 X153.971 Y109.819 E8.04628
G1 X154.006 Y110.347 E8.09628
G1 X154.006 Y112.653 E8.3142
G1 X153.966 Y113.219 E8.36782
G1 X153.847 Y113.773 E8.42137
G1 X153.651 Y114.305 E8.47495
G1 X153.383 Y114.805 E8.52856
G1 X153.046 Y115.261 E8.58214
G1 X152.649 Y115.666 E8.63573
G1 X152.199 Y116.012 E8.68937
G1 X151.705 Y116.29 E8.74294
G1 X151.177 Y116.496 E8.7965
G1 X150.625 Y116.626 E8.85009
G1 X150.099 Y116.676 E8.90002
G1 X147.944 Y116.739 E9.10376
G1 X147.377 Y116.716 E9.15738
G1 X146.819 Y116.613 E9.21101
G1 X146.793 Y116.604 E9.21361
G1 X146.624 Y116.653 E9.23023
G1 X145.787 Y116.741 E9.30977
G1 X77.214 Y116.741 E15.78991
G1 X76.648 Y116.701 E15.84354
G1 X76.188 Y116.602 E15.888
G1 X76.012 Y116.653 E15.90532
G1 X75.451 Y116.732 E15.95885
G1 X75.057 Y116.739 E15.99609
G1 X72.901 Y116.676 E16.19992
G1 X72.337 Y116.62 E16.25348
G1 X71.786 Y116.485 E16.30709
G1 X71.26 Y116.273 E16.36068
G1 X70.769 Y115.99 E16.41424
G1 X70.322 Y115.641 E16.46783
G1 X69.929 Y115.232 E16.52143
G1 X69.597 Y114.772 E16.57504
G1 X69.333 Y114.27 E16.62864
G1 X69.143 Y113.736 E16.6822
G1 X69.029 Y113.181 E16.73575
G1 X68.994 Y112.653 E16.78575
G1 X68.994 Y110.347 E17.00367
G1 X69.034 Y109.781 E17.05729
G1 X69.153 Y109.227 E17.11084
G1 X69.349 Y108.695 E17.16441
G1 X69.617 Y108.195 E17.21802
G1 X69.954 Y107.739 E17.2716
G1 X70.274 Y107.412 E17.31484
G0 F1620 X70.351 Y107.334
G0 X70.801 Y106.988
G0 F4909.1 X71.137 Y107.191
G1 F1500 E17.37882
G1 F1800 X71.621 Y106.948 E17.43
G1 X72.136 Y106.78 E17.48119
G1 X72.912 Y106.674 E17.5552
G1 X75.068 Y106.611 E17.75903
G1 X75.609 Y106.635 E17.8102
G1 X76.141 Y106.738 E17.86141
G1 X76.205 Y106.761 E17.86784
G1 X76.472 Y106.685 E17.89407
G1 X77.214 Y106.609 E17.96456
G1 X145.787 Y106.609 E24.44471
G1 X146.327 Y106.649 E24.49588
G1 X146.82 Y106.76 E24.54363
G1 X147.084 Y106.685 E24.56957
G1 X147.622 Y106.615 E24.62084
G1 X147.933 Y106.611 E24.65023
G1 X150.088 Y106.674 E24.85396
G1 X150.627 Y106.729 E24.90516
G1 X151.152 Y106.864 E24.95639
G1 X151.652 Y107.074 E25.00764
G1 X152.115 Y107.355 E25.05882
G1 X152.532 Y107.701 E25.11002
G1 X152.893 Y108.105 E25.16122
G1 X153.191 Y108.558 E25.21246
G1 X153.419 Y109.049 E25.26362
G1 X153.573 Y109.569 E25.31487
G1 X153.656 Y110.347 E25.38881
G1 X153.656 Y112.653 E25.60673
G1 X153.616 Y113.193 E25.6579
G1 X153.497 Y113.722 E25.70914
G1 X153.302 Y114.227 E25.76029
G1 X153.034 Y114.699 E25.81159
G1 X152.7 Y115.125 E25.86274
G1 X152.307 Y115.498 E25.91394
G1 X151.863 Y115.809 E25.96517
G1 X151.379 Y116.052 E26.01635
G1 X150.864 Y116.22 E26.06754
G1 X150.088 Y116.326 E26.14155
G1 X147.933 Y116.389 E26.34529
G1 X147.392 Y116.365 E26.39646
G1 X146.86 Y116.262 E26.44767
G1 X146.805 Y116.243 E26.45317
G1 X146.75 Y116.262 E26.45867
G1 X146.218 Y116.366 E26.50989
G1 X145.787 Y116.391 E26.55069
G1 X77.214 Y116.391 E33.03084
G1 X76.674 Y116.351 E33.08201
G1 X76.193 Y116.243 E33.1286
G1 X76.138 Y116.262 E33.1341
G1 X75.606 Y116.366 E33.18532
G1 X75.068 Y116.389 E33.23621
G1 X72.912 Y116.326 E33.44004
G1 X72.373 Y116.271 E33.49124
G1 X71.848 Y116.136 E33.54246
G1 X71.348 Y115.926 E33.59371
G1 X70.885 Y115.645 E33.64489
G1 X70.468 Y115.299 E33.6961
G1 X70.107 Y114.895 E33.7473
G1 X69.809 Y114.442 E33.79854
G1 X69.581 Y113.951 E33.8497
G1 X69.427 Y113.431 E33.90095
G1 X69.344 Y112.653 E33.97488
G1 X69.344 Y110.347 E34.1928
G1 X69.384 Y109.807 E34.24397
G1 X69.503 Y109.278 E34.29521
G1 X69.698 Y108.773 E34.34637
G1 X69.966 Y108.301 E34.39766
G1 X70.3 Y107.875 E34.44882
G1 X70.595 Y107.595 E34.48725
G0 F1620 X70.693 Y107.502
G0 X71.137 Y107.191
G0 F4909.1 X71.034 Y107.68
G1 F1500 E34.55123
G1 F1800 X71.47 Y107.405 E34.59994
G1 X71.943 Y107.201 E34.64862
G1 X72.442 Y107.072 E34.69732
G1 X72.922 Y107.023 E34.74292
G1 X75.078 Y106.96 E34.94675
G1 X75.593 Y106.985 E34.99547
G1 X76.097 Y107.089 E35.04411
G1 X76.199 Y107.127 E35.05439
G1 X76.384 Y107.064 E35.07286
G1 X76.892 Y106.975 E35.1216
G1 X77.214 Y106.959 E35.15206
G1 X145.787 Y106.959 E41.63221
G1 X146.301 Y106.999 E41.68093
G1 X146.802 Y107.118 E41.72959
G1 X146.819 Y107.125 E41.73133
G1 X146.996 Y107.064 E41.74902
G1 X147.504 Y106.975 E41.79776
G1 X147.923 Y106.96 E41.83738
G1 X150.078 Y107.023 E42.04112
G1 X150.591 Y107.078 E42.08987
G1 X151.088 Y107.212 E42.13852
G1 X151.56 Y107.421 E42.1873
G1 X151.993 Y107.7 E42.23597
G1 X152.378 Y108.042 E42.28464
G1 X152.705 Y108.44 E42.33332
G1 X152.967 Y108.884 E42.38203
G1 X153.157 Y109.363 E42.43073
G1 X153.271 Y109.866 E42.47947
G1 X153.306 Y110.347 E42.52504
G1 X153.306 Y112.653 E42.74296
G1 X153.266 Y113.167 E42.79168
G1 X153.147 Y113.668 E42.84034
G1 X152.952 Y114.145 E42.88904
G1 X152.686 Y114.587 E42.93779
G1 X152.355 Y114.981 E42.98642
G1 X151.966 Y115.32 E43.03518
G1 X151.53 Y115.595 E43.08389
G1 X151.057 Y115.799 E43.13257
G1 X150.558 Y115.928 E43.18128
G1 X150.078 Y115.977 E43.22687
G1 X147.923 Y116.04 E43.43061
G1 X147.408 Y116.015 E43.47933
G1 X146.904 Y115.911 E43.52796
G1 X146.812 Y115.877 E43.53723
G1 X146.339 Y115.995 E43.5833
G1 X145.787 Y116.041 E43.63564
G1 X77.214 Y116.041 E50.11579
G1 X76.7 Y116.001 E50.16451
G1 X76.199 Y115.882 E50.21317
G1 X76.191 Y115.879 E50.21398
G1 X75.727 Y115.995 E50.25918
G1 X75.078 Y116.04 E50.32066
G1 X72.922 Y115.977 E50.52449
G1 X72.409 Y115.922 E50.57324
G1 X71.912 Y115.788 E50.62189
G1 X71.44 Y115.579 E50.67067
G1 X71.007 Y115.3 E50.71934
G1 X70.622 Y114.958 E50.76801
G1 X70.295 Y114.56 E50.81669
G1 X70.033 Y114.116 E50.8654
G1 X69.843 Y113.637 E50.9141
G1 X69.729 Y113.134 E50.96284
G1 X69.694 Y112.653 E51.00841
G1 X69.694 Y110.347 E51.22633
G1 X69.734 Y109.833 E51.27505
G1 X69.853 Y109.332 E51.32371
G1 X70.048 Y108.855 E51.37241
G1 X70.314 Y108.413 E51.42116
G1 X70.541 Y108.143 E51.4545
G0 F1620 X70.645 Y108.019
G0 X71.034 Y107.68
G0 F4909.1 X71.372 Y107.869
G1 F1500 E51.51847
G1 F1800 X71.799 Y107.634 E51.56453
G1 X72.258 Y107.471 E51.61056
G1 X72.932 Y107.373 E51.67492
G1 X75.088 Y107.31 E51.87875
G1 X75.575 Y107.336 E51.92484
G1 X76.051 Y107.441 E51.9709
G1 X76.194 Y107.498 E51.98545
G1 X76.332 Y107.443 E51.99949
G1 X76.808 Y107.337 E52.04557
G1 X77.214 Y107.309 E52.08403
G1 X145.787 Y107.309 E58.56418
G1 X146.273 Y107.349 E58.61026
G1 X146.746 Y107.468 E58.65635
G1 X146.811 Y107.496 E58.66304
G1 X146.944 Y107.443 E58.67657
G1 X147.42 Y107.337 E58.72265
G1 X147.913 Y107.31 E58.76931
G1 X150.068 Y107.373 E58.97305
G1 X150.552 Y107.427 E59.01907
G1 X151.021 Y107.56 E59.06514
G1 X151.463 Y107.767 E59.11126
G1 X151.864 Y108.044 E59.15732
G1 X152.215 Y108.382 E59.20336
G1 X152.506 Y108.773 E59.24942
G1 X152.729 Y109.207 E59.29553
G1 X152.878 Y109.671 E59.34159
G1 X152.956 Y110.347 E59.40589
G1 X152.956 Y112.653 E59.62381
G1 X152.916 Y113.139 E59.66989
G1 X152.797 Y113.612 E59.71598
G1 X152.603 Y114.059 E59.76203
G1 X152.338 Y114.468 E59.80809
G1 X152.01 Y114.828 E59.85411
G1 X151.628 Y115.131 E59.90019
G1 X151.201 Y115.366 E59.94624
G1 X150.742 Y115.529 E59.99227
G1 X150.068 Y115.627 E60.05664
G1 X147.913 Y115.69 E60.26037
G1 X147.426 Y115.664 E60.30646
G1 X146.95 Y115.559 E60.35252
G1 X146.81 Y115.503 E60.36677
G1 X146.423 Y115.622 E60.40503
G1 X145.787 Y115.691 E60.46549
G1 X77.214 Y115.691 E66.94564
G1 X76.728 Y115.651 E66.99172
G1 X76.255 Y115.532 E67.03781
G1 X76.193 Y115.505 E67.0442
G1 X75.811 Y115.622 E67.08195
G1 X75.088 Y115.69 E67.15058
G1 X72.932 Y115.627 E67.35441
G1 X72.448 Y115.573 E67.40043
G1 X71.979 Y115.44 E67.4465
G1 X71.537 Y115.233 E67.49262
G1 X71.136 Y114.956 E67.53868
G1 X70.785 Y114.618 E67.58472
G1 X70.494 Y114.227 E67.63078
G1 X70.271 Y113.793 E67.67689
G1 X70.122 Y113.329 E67.72295
G1 X70.044 Y112.653 E67.78725
G1 X70.044 Y110.347 E68.00517
G1 X70.084 Y109.861 E68.05125
G1 X70.203 Y109.388 E68.09734
G1 X70.397 Y108.941 E68.14339
G1 X70.662 Y108.532 E68.18945
G1 X70.863 Y108.312 E68.21761
G0 F1620 X70.99 Y108.172
G0 X71.372 Y107.869
G0 F4909.1 X71.708 Y108.073
G1 F1500 E68.28158
G1 F1800 X72.123 Y107.88 E68.32484
G1 X72.565 Y107.762 E68.36807
G1 X72.942 Y107.723 E68.40388
G1 X75.098 Y107.66 E68.60771
G1 X75.555 Y107.687 E68.65097
G1 X76.001 Y107.792 E68.69427
G1 X76.193 Y107.875 E68.71404
G1 X76.318 Y107.817 E68.72706
G1 X76.76 Y107.698 E68.77032
G1 X77.214 Y107.659 E68.81338
G1 X145.787 Y107.659 E75.29353
G1 X146.243 Y107.699 E75.33679
G1 X146.685 Y107.817 E75.38002
G1 X146.807 Y107.874 E75.39274
G1 X146.93 Y107.817 E75.40555
G1 X147.372 Y107.698 E75.44881
G1 X147.903 Y107.66 E75.49912
G1 X150.058 Y107.723 E75.70285
G1 X150.512 Y107.776 E75.74605
G1 X150.951 Y107.908 E75.78937
G1 X151.36 Y108.113 E75.8326
G1 X151.727 Y108.387 E75.87588
G1 X152.041 Y108.72 E75.91913
G1 X152.292 Y109.103 E75.96241
G1 X152.473 Y109.523 E76.00563
G1 X152.579 Y109.969 E76.04895
G1 X152.606 Y110.347 E76.08476
G1 X152.606 Y112.653 E76.30268
G1 X152.566 Y113.109 E76.34593
G1 X152.448 Y113.551 E76.38917
G1 X152.254 Y113.966 E76.43246
G1 X151.991 Y114.341 E76.47574
G1 X151.667 Y114.665 E76.51904
G1 X151.292 Y114.927 E76.56227
G1 X150.877 Y115.12 E76.60552
G1 X150.435 Y115.238 E76.64875
G1 X150.058 Y115.277 E76.68457
G1 X147.903 Y115.34 E76.88831
G1 X147.446 Y115.313 E76.93157
G1 X147 Y115.208 E76.97487
G1 X146.811 Y115.126 E76.99434
G1 X146.469 Y115.251 E77.02875
G1 X146.018 Y115.331 E77.07203
G1 X145.787 Y115.341 E77.09388
G1 X77.214 Y115.341 E83.57403
G1 X76.758 Y115.301 E83.61729
G1 X76.316 Y115.183 E83.66052
G1 X76.196 Y115.127 E83.67303
G1 X75.857 Y115.251 E83.70714
G1 X75.406 Y115.331 E83.75043
G1 X75.098 Y115.34 E83.77955
G1 X72.942 Y115.277 E83.98338
G1 X72.488 Y115.224 E84.02657
G1 X72.049 Y115.092 E84.06989
G1 X71.64 Y114.887 E84.11312
G1 X71.273 Y114.613 E84.15641
G1 X70.959 Y114.28 E84.19966
G1 X70.708 Y113.897 E84.24293
G1 X70.527 Y113.477 E84.28615
G1 X70.421 Y113.031 E84.32947
G1 X70.394 Y112.653 E84.36528
G1 X70.394 Y110.347 E84.5832
G1 X70.434 Y109.891 E84.62646
G1 X70.552 Y109.449 E84.66969
G1 X70.746 Y109.034 E84.71298
G1 X71.009 Y108.659 E84.75626
G1 X71.178 Y108.49 E84.77885
G0 F1620 X71.333 Y108.335
G0 X71.708 Y108.073
G0 F4909.1 X71.673 Y108.513
G1 F1500 E84.84283
G1 F1800 X72.039 Y108.294 E84.88313
G1 X72.439 Y108.147 E84.9234
G1 X72.953 Y108.073 E84.97248
G1 X75.109 Y108.01 E85.17631
G1 X75.534 Y108.037 E85.21655
G1 X75.946 Y108.144 E85.25678
G1 X76.195 Y108.261 E85.28277
G1 X76.342 Y108.183 E85.2985
G1 X76.749 Y108.057 E85.33876
G1 X77.214 Y108.009 E85.38294
G1 X145.787 Y108.009 E91.86309
G1 X146.211 Y108.049 E91.90333
G1 X146.621 Y108.167 E91.94365
G1 X146.806 Y108.261 E91.96326
G1 X146.954 Y108.183 E91.97907
G1 X147.361 Y108.057 E92.01933
G1 X147.892 Y108.01 E92.06971
G1 X150.047 Y108.073 E92.27344
G1 X150.47 Y108.125 E92.31372
G1 X150.876 Y108.256 E92.35403
G1 X151.251 Y108.459 E92.39433
G1 X151.58 Y108.729 E92.43455
G1 X151.854 Y109.056 E92.47486
G1 X152.062 Y109.428 E92.51514
G1 X152.197 Y109.832 E92.55539
G1 X152.256 Y110.347 E92.60438
G1 X152.256 Y112.653 E92.8223
G1 X152.216 Y113.077 E92.86254
G1 X152.098 Y113.487 E92.90286
G1 X151.905 Y113.867 E92.94314
G1 X151.645 Y114.204 E92.98336
G1 X151.327 Y114.487 E93.02359
G1 X150.961 Y114.706 E93.06389
G1 X150.561 Y114.853 E93.10416
G1 X150.047 Y114.927 E93.15324
G1 X147.892 Y114.99 E93.35697
G1 X147.467 Y114.963 E93.39722
G1 X147.055 Y114.856 E93.43744
G1 X146.812 Y114.742 E93.46281
G1 X146.476 Y114.884 E93.49728
G1 X146.06 Y114.975 E93.53752
G1 X145.787 Y114.991 E93.56336
G1 X77.214 Y114.991 E100.04351
G1 X76.79 Y114.951 E100.08376
G1 X76.38 Y114.833 E100.12407
G1 X76.2 Y114.742 E100.14313
G1 X75.864 Y114.884 E100.17761
G1 X75.448 Y114.975 E100.21785
G1 X75.109 Y114.99 E100.24991
G1 X72.953 Y114.927 E100.45374
G1 X72.53 Y114.875 E100.49402
G1 X72.124 Y114.744 E100.53433
G1 X71.75 Y114.541 E100.57455
G1 X71.42 Y114.271 E100.61484
G1 X71.146 Y113.944 E100.65515
G1 X70.938 Y113.572 E100.69543
G1 X70.803 Y113.168 E100.73568
G1 X70.744 Y112.653 E100.78467
G1 X70.744 Y110.347 E101.00259
G1 X70.784 Y109.923 E101.04283
G1 X70.902 Y109.513 E101.08315
G1 X71.095 Y109.133 E101.12343
G1 X71.201 Y108.995 E101.13987
G0 F1620 X71.355 Y108.796
G0 X71.673 Y108.513
G0 F4909.1 X72.011 Y108.707
G1 F1500 E101.20385
G1 F1800 X72.364 Y108.537 E101.24087
G1 X72.744 Y108.442 E101.27789
G1 X72.963 Y108.423 E101.29866
G1 X75.119 Y108.36 E101.50249
G1 X75.51 Y108.388 E101.53953
G1 X75.887 Y108.495 E101.57657
G1 X76.2 Y108.659 E101.60996
G1 X76.405 Y108.537 E101.6325
G1 X76.776 Y108.41 E101.66956
G1 X77.214 Y108.359 E101.71123
G1 X145.787 Y108.359 E108.19138
G1 X146.177 Y108.399 E108.22843
G1 X146.551 Y108.517 E108.26549
G1 X146.808 Y108.661 E108.29333
G1 X147.017 Y108.537 E108.31629
G1 X147.388 Y108.41 E108.35335
G1 X147.882 Y108.36 E108.40027
G1 X150.037 Y108.423 E108.604
G1 X150.426 Y108.474 E108.64108
G1 X150.796 Y108.603 E108.67811
G1 X151.132 Y108.804 E108.71511
G1 X151.421 Y109.069 E108.75216
G1 X151.65 Y109.387 E108.78919
G1 X151.81 Y109.745 E108.82625
G1 X151.894 Y110.128 E108.8633
G1 X151.906 Y110.347 E108.88403
G1 X151.906 Y112.653 E109.10195
G1 X151.866 Y113.043 E109.139
G1 X151.748 Y113.417 E109.17606
G1 X151.557 Y113.759 E109.21307
G1 X151.3 Y114.055 E109.25012
G1 X150.989 Y114.293 E109.28713
G1 X150.636 Y114.463 E109.32415
G1 X150.256 Y114.558 E109.36117
G1 X150.037 Y114.577 E109.38194
G1 X147.882 Y114.64 E109.58567
G1 X147.491 Y114.612 E109.62272
G1 X147.114 Y114.505 E109.65975
G1 X146.81 Y114.345 E109.69222
G1 X146.797 Y114.355 E109.69377
G1 X146.444 Y114.525 E109.73079
G1 X146.064 Y114.621 E109.76783
G1 X145.787 Y114.641 E109.79407
G1 X77.214 Y114.641 E116.27422
G1 X76.824 Y114.601 E116.31127
G1 X76.45 Y114.483 E116.34833
G1 X76.2 Y114.343 E116.37541
G1 X76.185 Y114.355 E116.37722
G1 X75.832 Y114.525 E116.41425
G1 X75.452 Y114.621 E116.45129
G1 X75.119 Y114.64 E116.48281
G1 X72.963 Y114.577 E116.68664
G1 X72.574 Y114.526 E116.72371
G1 X72.204 Y114.397 E116.76074
G1 X71.868 Y114.196 E116.79774
G1 X71.579 Y113.931 E116.83479
G1 X71.35 Y113.613 E116.87183
G1 X71.19 Y113.255 E116.90888
G1 X71.106 Y112.872 E116.94594
G1 X71.094 Y112.653 E116.96666
G1 X71.094 Y110.347 E117.18458
G1 X71.134 Y109.957 E117.22163
G1 X71.252 Y109.583 E117.25869
G1 X71.443 Y109.241 E117.29571
G1 X71.513 Y109.16 E117.30582
G0 F1620 X71.7 Y108.945
G0 X72.011 Y108.707
G0 F4909.1 X72.042 Y109.111
G1 F1500 E117.3698
G1 F1800 X72.343 Y108.924 E117.40329
G1 X72.679 Y108.809 E117.43685
G1 X72.973 Y108.773 E117.46484
G1 X75.129 Y108.71 E117.66867
G1 X75.482 Y108.739 E117.70214
G1 X75.82 Y108.847 E117.73567
G1 X76.125 Y109.028 E117.76918
G1 X76.191 Y109.091 E117.77781
G1 X76.211 Y109.07 E117.78055
G1 X76.507 Y108.876 E117.81399
G1 X76.84 Y108.754 E117.84751
G1 X77.214 Y108.709 E117.8831
