;FLAVOR:UltiGCode
;TIME:8142
;MATERIAL:17414
;MATERIAL2:0
;NOZZLE_DIAMETER:0.4
;Generated with Cura_SteamEngine 3.4.1
M82 ;absolute extrusion mode

G92 E0
G10
;LAYER_COUNT:96
;LAYER:0
M107
G0 F4909.1 X105.567 Y26.804 Z0.27
;TYPE:SKIRT
G11
G1 F1800 X105.769 Y26.28 E0.05307
G1 X105.921 Y25.955 E0.08698
G1 X106.197 Y25.459 E0.14062
G1 X106.54 Y25.008 E0.19416
G1 X106.814 Y24.724 E0.23145
G1 X107.935 Y23.673 E0.37666
G1 X108.375 Y23.315 E0.43027
G1 X108.861 Y23.023 E0.48385
G1 X109.383 Y22.801 E0.53745
G1 X109.797 Y22.684 E0.57811
G1 X110.603 Y22.501 E0.65621
G1 X111.163 Y22.415 E0.70975
G1 X111.922 Y22.424 E0.78148
G1 X112.324 Y22.467 E0.81969
G1 X112.882 Y22.567 E0.87326
G1 X113.349 Y22.715 E0.91956
G1 X113.84 Y22.905 E0.96931
G1 X114.353 Y23.147 E1.02291
G1 X114.876 Y23.496 E1.08233
G1 X115.312 Y23.839 E1.13475
G1 X115.796 Y24.288 E1.19714
G1 X116.425 Y24.977 E1.2853
G1 X116.776 Y25.422 E1.33886
G1 X117.098 Y25.985 E1.40015
G1 X117.237 Y26.282 E1.43114
G1 X117.44 Y26.811 E1.48468
G1 X117.567 Y27.364 E1.5383
G1 X117.616 Y27.929 E1.5919
G1 X117.596 Y28.275 E1.62465
G1 X117.591 Y28.787 E1.67303
G1 X117.506 Y29.348 E1.72665
G1 X117.342 Y29.891 E1.78026
G1 X117.131 Y30.356 E1.82851
G1 X116.658 Y31.243 E1.92351
G1 X116.293 Y32.398 E2.03797
G1 X116.084 Y32.925 E2.09155
G1 X115.9 Y33.248 E2.12668
G1 X116.03 Y33.356 E2.14265
G1 X116.413 Y33.775 E2.19629
G1 X116.732 Y34.243 E2.24982
G1 X116.982 Y34.752 E2.30341
G1 X117.159 Y35.291 E2.35702
G1 X117.258 Y35.85 E2.41067
G1 X117.28 Y36.318 E2.45494
G1 X117.085 Y53.17 E4.04756
G1 X117.094 Y53.17 E4.04841
G1 X117.654 Y53.258 E4.10198
G1 X118.197 Y53.424 E4.15564
G1 X118.71 Y53.665 E4.2092
G1 X119.185 Y53.976 E4.26285
G1 X119.611 Y54.35 E4.31642
G1 X119.98 Y54.78 E4.36997
G1 X120.285 Y55.258 E4.42355
G1 X120.52 Y55.774 E4.47713
G1 X120.681 Y56.318 E4.53075
G1 X120.763 Y56.879 E4.58432
G1 X120.769 Y57.378 E4.63148
G1 X120.427 Y64.328 E5.28905
G1 X120.564 Y64.823 E5.33759
G1 X120.637 Y65.385 E5.39114
G1 X120.639 Y65.817 E5.43197
G1 X120.321 Y72.328 E6.04799
G1 X120.455 Y72.793 E6.09372
G1 X120.533 Y73.354 E6.14725
G1 X120.537 Y73.822 E6.19147
G1 X120.214 Y80.485 E6.82187
G1 X120.357 Y81.013 E6.87356
G1 X120.426 Y81.575 E6.92707
G1 X120.426 Y81.978 E6.96515
G1 X120.109 Y88.534 E7.58542
G1 X120.111 Y88.54 E7.58601
G1 X120.255 Y89.089 E7.63965
G1 X120.322 Y89.652 E7.69323
G1 X120.321 Y90.035 E7.72942
G1 X120.003 Y96.561 E8.34686
G1 X120.148 Y97.101 E8.3997
G1 X120.216 Y97.664 E8.45329
G1 X120.216 Y98.059 E8.49062
G1 X119.901 Y104.588 E9.10832
G1 X120.046 Y105.136 E9.16189
G1 X120.113 Y105.699 E9.21547
G1 X120.113 Y106.088 E9.25223
G1 X119.913 Y110.195 E9.6408
G1 X126.953 Y110.217 E10.30609
G1 X127.518 Y110.259 E10.35963
G1 X128.072 Y110.38 E10.41321
G1 X128.604 Y110.577 E10.46682
G1 X129.103 Y110.847 E10.52044
G1 X129.558 Y111.185 E10.574
G1 X129.962 Y111.583 E10.6276
G1 X130.306 Y112.034 E10.6812
G1 X130.582 Y112.529 E10.73475
G1 X130.787 Y113.058 E10.78837
G1 X130.915 Y113.611 E10.84201
G1 X130.965 Y114.242 E10.90182
G1 X130.965 Y118.278 E11.28323
G1 X130.925 Y118.844 E11.33685
G1 X130.806 Y119.398 E11.39039
G1 X130.61 Y119.93 E11.44397
G1 X130.342 Y120.43 E11.49758
G1 X130.005 Y120.886 E11.55116
G1 X129.608 Y121.291 E11.60476
G1 X129.158 Y121.637 E11.6584
G1 X128.664 Y121.915 E11.71197
G1 X128.136 Y122.121 E11.76553
G1 X127.584 Y122.251 E11.81912
G1 X126.951 Y122.303 E11.87914
G1 X119.907 Y122.323 E12.5448
G1 X119.582 Y128.814 E13.15897
G1 X119.717 Y129.294 E13.20609
G1 X119.792 Y129.856 E13.25967
G1 X119.795 Y130.303 E13.30191
G1 X119.473 Y136.899 E13.92597
G1 X119.475 Y136.904 E13.92648
G1 X119.619 Y137.453 E13.98012
G1 X119.686 Y138.016 E14.0337
G1 X119.685 Y138.397 E14.0697
G1 X119.369 Y144.939 E14.68864
G1 X119.399 Y145.015 E14.69636
G1 X119.533 Y145.566 E14.74995
G1 X119.588 Y146.131 E14.80359
G1 X119.584 Y146.433 E14.83213
G1 X119.262 Y153.076 E15.46063
G1 X119.269 Y153.094 E15.46246
G1 X119.412 Y153.643 E15.51607
G1 X119.476 Y154.206 E15.56962
G1 X119.475 Y154.577 E15.60468
G1 X119.157 Y161.071 E16.2191
G1 X119.172 Y161.108 E16.22287
G1 X119.312 Y161.658 E16.2765
G1 X119.374 Y162.221 E16.33003
G1 X119.372 Y162.572 E16.3632
G1 X119.052 Y169.145 E16.98508
G1 X119.073 Y169.196 E16.99029
G1 X119.21 Y169.746 E17.04386
G1 X119.269 Y170.31 E17.09744
G1 X119.266 Y170.64 E17.12863
G1 X118.946 Y177.165 E17.74598
G1 X118.967 Y177.217 E17.75128
G1 X119.104 Y177.767 E17.80485
G1 X119.163 Y178.331 E17.85844
G1 X119.16 Y178.66 E17.88953
G1 X118.846 Y185.132 E18.50185
G1 X118.869 Y185.188 E18.50757
G1 X119.007 Y185.738 E18.56116
G1 X119.066 Y186.302 E18.61475
G1 X119.063 Y186.632 E18.64593
G1 X118.953 Y188.906 E18.86108
G1 X119.059 Y189.225 E18.89284
G1 X119.159 Y189.783 E18.94641
G1 X119.183 Y190.23 E18.98872
G1 X119.163 Y196.977 E19.62631
G1 X119.121 Y197.542 E19.67985
G1 X119.001 Y198.097 E19.73351
G1 X118.803 Y198.628 E19.78707
G1 X118.533 Y199.127 E19.84068
G1 X118.196 Y199.583 E19.89426
G1 X117.797 Y199.986 E19.94786
G1 X117.346 Y200.33 E20.00146
G1 X116.851 Y200.607 E20.05506
G1 X116.323 Y200.812 E20.10859
G1 X115.77 Y200.94 E20.16223
G1 X115.137 Y200.99 E20.22223
G1 X107.862 Y200.989 E20.90972
G1 X107.297 Y200.949 E20.96324
G1 X106.742 Y200.83 E21.01688
G1 X106.21 Y200.634 E21.07046
G1 X105.711 Y200.365 E21.12403
G1 X105.254 Y200.029 E21.17764
G1 X104.849 Y199.632 E21.23123
G1 X104.504 Y199.182 E21.28481
G1 X104.226 Y198.688 E21.33838
G1 X104.02 Y198.159 E21.39203
G1 X103.89 Y197.607 E21.44562
G1 X103.838 Y196.977 E21.50536
G1 X103.817 Y190.223 E22.14361
G1 X103.855 Y189.657 E22.19722
G1 X103.973 Y189.102 E22.25084
G1 X104.048 Y188.896 E22.27156
G1 X103.938 Y186.672 E22.48198
G1 X103.95 Y186.105 E22.53558
G1 X104.041 Y185.545 E22.58919
G1 X104.154 Y185.187 E22.62467
G1 X103.837 Y178.636 E23.24446
G1 X103.849 Y178.069 E23.29805
G1 X103.941 Y177.51 E23.35159
G1 X104.052 Y177.156 E23.38665
G1 X103.735 Y170.633 E24.0038
G1 X103.747 Y170.066 E24.05739
G1 X103.839 Y169.506 E24.11102
G1 X103.952 Y169.148 E24.1465
G1 X103.633 Y162.572 E24.76866
G1 X103.645 Y162.005 E24.82225
G1 X103.737 Y161.445 E24.87588
G1 X103.848 Y161.093 E24.91076
G1 X103.529 Y154.545 E25.53028
G1 X103.541 Y153.978 E25.58388
G1 X103.633 Y153.418 E25.63751
G1 X103.744 Y153.065 E25.67247
G1 X103.416 Y146.387 E26.30431
G1 X103.428 Y145.821 E26.3578
G1 X103.52 Y145.261 E26.41143
G1 X103.629 Y144.912 E26.44599
G1 X103.314 Y138.4 E27.06209
G1 X103.326 Y137.833 E27.11568
G1 X103.418 Y137.274 E27.16922
G1 X103.528 Y136.924 E27.20389
G1 X103.204 Y130.294 E27.83117
G1 X103.216 Y129.727 E27.88477
G1 X103.308 Y129.167 E27.93839
G1 X103.412 Y128.835 E27.97127
G1 X103.088 Y122.322 E28.58751
G1 X96.049 Y122.302 E29.2527
G1 X95.483 Y122.26 E29.30633
G1 X94.929 Y122.14 E29.3599
G1 X94.397 Y121.943 E29.41351
G1 X93.899 Y121.672 E29.46709
G1 X93.443 Y121.335 E29.52067
G1 X93.039 Y120.937 E29.57426
G1 X92.695 Y120.486 E29.62787
G1 X92.418 Y119.991 E29.68147
G1 X92.213 Y119.462 E29.73508
G1 X92.085 Y118.91 E29.78863
G1 X92.035 Y118.277 E29.84864
G1 X92.035 Y114.243 E30.22985
G1 X92.075 Y113.677 E30.28347
G1 X92.194 Y113.123 E30.33702
G1 X92.39 Y112.591 E30.39059
G1 X92.658 Y112.091 E30.4442
G1 X92.995 Y111.635 E30.49779
G1 X93.392 Y111.23 E30.55138
G1 X93.842 Y110.884 E30.60502
G1 X94.336 Y110.606 E30.65859
G1 X94.864 Y110.4 E30.71215
G1 X95.416 Y110.27 E30.76574
G1 X96.048 Y110.218 E30.82567
G1 X103.084 Y110.197 E31.49057
G1 X102.886 Y106.078 E31.88026
G1 X102.898 Y105.511 E31.93386
G1 X102.991 Y104.952 E31.98741
G1 X103.1 Y104.605 E32.02178
G1 X102.783 Y98.063 E32.64073
G1 X102.795 Y97.496 E32.69432
G1 X102.887 Y96.936 E32.74795
G1 X102.995 Y96.592 E32.78202
G1 X102.678 Y90.014 E33.40436
G1 X102.69 Y89.447 E33.45796
G1 X102.783 Y88.887 E33.5116
G1 X102.892 Y88.539 E33.54606
G1 X102.572 Y81.956 E34.16889
G1 X102.584 Y81.389 E34.22248
G1 X102.676 Y80.829 E34.27611
G1 X102.787 Y80.477 E34.31099
G1 X102.467 Y73.856 E34.93741
G1 X102.479 Y73.289 E34.991
G1 X102.571 Y72.73 E35.04454
G1 X102.681 Y72.381 E35.07912
G1 X102.362 Y65.847 E35.69732
G1 X102.374 Y65.28 E35.75091
G1 X102.466 Y64.721 E35.80445
G1 X102.575 Y64.374 E35.83882
G1 X102.234 Y57.373 E36.5012
G1 X102.246 Y56.806 E36.55479
G1 X102.338 Y56.246 E36.60842
G1 X102.508 Y55.705 E36.66201
G1 X102.752 Y55.193 E36.7156
G1 X103.065 Y54.721 E36.76912
G1 X103.442 Y54.297 E36.82274
G1 X103.875 Y53.93 E36.87638
G1 X104.355 Y53.628 E36.92997
G1 X104.873 Y53.396 E36.98361
G1 X105.418 Y53.24 E37.03718
G1 X105.941 Y53.166 E37.08709
G1 X105.811 Y47.799 E37.59442
G1 X105.81 Y47.734 E37.60057
G1 X105.72 Y36.303 E38.68083
G1 X105.756 Y35.737 E38.73443
G1 X105.87 Y35.181 E38.78806
G1 X106.062 Y34.648 E38.8416
G1 X106.327 Y34.146 E38.89524
G1 X106.659 Y33.687 E38.94877
G1 X107.053 Y33.279 E39.00237
G1 X107.108 Y33.236 E39.00897
G1 X106.878 Y32.801 E39.05547
G1 X106.734 Y32.425 E39.09352
G1 X106.357 Y31.269 E39.20842
G1 X105.875 Y30.359 E39.30574
G1 X105.646 Y29.84 E39.35934
G1 X105.491 Y29.294 E39.41298
G1 X105.415 Y28.732 E39.46657
G1 X105.417 Y28.403 E39.49766
G1 X105.391 Y27.922 E39.54318
G1 X105.43 Y27.466 E39.58643
G0 F1620 X105.439 Y27.357
G0 X105.567 Y26.804
G0 F4909.1 X105.931 Y26.815
G1 F1500 E39.65041
G1 F1800 X106.086 Y26.428 E39.68981
G1 X106.238 Y26.103 E39.72371
G1 X106.503 Y25.631 E39.77486
G1 X106.835 Y25.202 E39.82613
G1 X107.053 Y24.979 E39.8556
G1 X108.174 Y23.928 E40.00081
G1 X108.596 Y23.588 E40.05202
G1 X109.063 Y23.313 E40.10324
G1 X109.565 Y23.11 E40.15441
G1 X109.874 Y23.025 E40.18469
G1 X110.68 Y22.842 E40.2628
G1 X111.216 Y22.762 E40.31401
G1 X111.885 Y22.772 E40.37724
G1 X112.287 Y22.815 E40.41544
G1 X112.82 Y22.912 E40.46664
G1 X113.222 Y23.042 E40.50657
G1 X113.713 Y23.232 E40.55632
G1 X114.203 Y23.464 E40.60755
G1 X114.659 Y23.771 E40.6595
G1 X115.095 Y24.114 E40.71192
G1 X115.537 Y24.524 E40.76889
G1 X116.166 Y25.213 E40.85706
G1 X116.501 Y25.639 E40.90827
G1 X116.781 Y26.133 E40.96193
G1 X116.92 Y26.43 E40.99292
G1 X117.112 Y26.937 E41.04415
G1 X117.229 Y27.466 E41.09535
G1 X117.266 Y28.006 E41.1465
G1 X117.247 Y28.248 E41.16944
G1 X117.249 Y28.265 E41.17106
G1 X117.238 Y28.807 E41.22229
G1 X117.148 Y29.341 E41.27346
G1 X116.98 Y29.856 E41.32465
G1 X116.822 Y30.191 E41.35965
G1 X116.334 Y31.107 E41.45773
G1 X115.959 Y32.292 E41.57519
G1 X115.758 Y32.795 E41.62638
G1 X115.485 Y33.264 E41.67766
G1 X115.441 Y33.319 E41.68432
G1 X115.468 Y33.337 E41.68738
G1 X115.875 Y33.694 E41.73854
G1 X116.225 Y34.107 E41.7897
G1 X116.511 Y34.567 E41.84089
G1 X116.726 Y35.065 E41.89215
G1 X116.866 Y35.588 E41.94331
G1 X116.93 Y36.314 E42.01218
G1 X116.731 Y53.506 E43.63694
G1 X117.256 Y53.54 E43.68665
G1 X117.786 Y53.654 E43.73788
G1 X118.293 Y53.845 E43.78908
G1 X118.766 Y54.108 E43.84023
G1 X119.196 Y54.438 E43.89145
G1 X119.573 Y54.828 E43.94271
G1 X119.888 Y55.269 E43.99392
G1 X120.135 Y55.751 E44.0451
G1 X120.308 Y56.264 E44.09626
G1 X120.404 Y56.798 E44.14754
G1 X120.42 Y57.36 E44.20067
G1 X120.075 Y64.386 E44.86542
G1 X120.106 Y64.461 E44.87309
G1 X120.239 Y64.987 E44.92436
G1 X120.293 Y65.526 E44.97555
G1 X120.29 Y65.8 E45.00145
G1 X119.969 Y72.377 E45.62372
G1 X119.994 Y72.436 E45.62977
G1 X120.131 Y72.96 E45.68095
G1 X120.19 Y73.499 E45.73219
G1 X120.188 Y73.805 E45.76111
G1 X119.861 Y80.551 E46.39936
G1 X119.901 Y80.648 E46.40927
G1 X120.03 Y81.175 E46.46054
G1 X120.077 Y81.961 E46.53495
G1 X119.755 Y88.606 E47.16364
G1 X119.802 Y88.722 E47.17547
G1 X119.928 Y89.249 E47.22667
G1 X119.972 Y90.018 E47.29946
G1 X119.65 Y96.63 E47.92504
G1 X119.693 Y96.736 E47.93585
G1 X119.821 Y97.262 E47.98701
G1 X119.867 Y98.042 E48.06084
G1 X119.548 Y104.661 E48.68707
G1 X119.592 Y104.77 E48.69817
G1 X119.719 Y105.297 E48.7494
G1 X119.764 Y106.071 E48.82267
G1 X119.547 Y110.543 E49.24577
G1 X126.952 Y110.567 E49.94554
G1 X127.492 Y110.609 E49.99673
G1 X128.02 Y110.729 E50.0479
G1 X128.525 Y110.926 E50.09912
G1 X128.995 Y111.195 E50.1503
G1 X129.421 Y111.531 E50.20157
G1 X129.793 Y111.925 E50.25278
G1 X130.102 Y112.37 E50.30397
G1 X130.343 Y112.855 E50.35515
G1 X130.51 Y113.37 E50.40631
G1 X130.6 Y113.905 E50.45758
G1 X130.615 Y114.242 E50.48946
G1 X130.615 Y118.278 E50.87086
G1 X130.575 Y118.818 E50.92203
G1 X130.456 Y119.347 E50.97327
G1 X130.261 Y119.852 E51.02443
G1 X129.993 Y120.324 E51.07572
G1 X129.659 Y120.75 E51.12688
G1 X129.266 Y121.123 E51.17808
G1 X128.822 Y121.434 E51.22931
G1 X128.338 Y121.677 E51.28048
G1 X127.823 Y121.845 E51.33168
G1 X127.289 Y121.936 E51.38287
G1 X126.95 Y121.953 E51.41494
G1 X119.573 Y121.974 E52.11207
G1 X119.229 Y128.866 E52.76418
G1 X119.258 Y128.935 E52.77125
G1 X119.393 Y129.46 E52.82248
G1 X119.448 Y129.998 E52.87358
G1 X119.446 Y130.286 E52.9008
G1 X119.12 Y136.971 E53.53328
G1 X119.166 Y137.086 E53.54499
G1 X119.292 Y137.613 E53.59619
G1 X119.336 Y138.381 E53.66889
G1 X119.016 Y145.004 E54.29549
G1 X119.087 Y145.191 E54.31439
G1 X119.202 Y145.72 E54.36555
G1 X119.235 Y146.416 E54.4314
G1 X118.908 Y153.145 E55.06804
G1 X118.96 Y153.275 E55.08127
G1 X119.084 Y153.802 E55.13243
G1 X119.126 Y154.56 E55.20417
G1 X118.804 Y161.139 E55.82663
G1 X118.862 Y161.287 E55.84165
G1 X118.984 Y161.815 E55.89286
G1 X119.023 Y162.555 E55.96289
G1 X118.699 Y169.211 E56.59263
G1 X118.762 Y169.373 E56.60905
G1 X118.881 Y169.902 E56.66029
G1 X118.917 Y170.623 E56.72851
G1 X118.593 Y177.231 E57.35372
G1 X118.656 Y177.394 E57.37023
G1 X118.775 Y177.923 E57.42147
G1 X118.811 Y178.643 E57.4896
G1 X118.493 Y185.198 E58.10977
G1 X118.558 Y185.365 E58.12671
G1 X118.678 Y185.894 E58.17797
G1 X118.714 Y186.615 E58.24619
G1 X118.601 Y188.948 E58.46691
G1 X118.737 Y189.382 E58.50989
G1 X118.821 Y189.917 E58.56107
G1 X118.833 Y190.229 E58.59058
G1 X118.813 Y196.976 E59.22817
G1 X118.771 Y197.516 E59.27936
G1 X118.651 Y198.044 E59.33052
G1 X118.454 Y198.549 E59.38175
G1 X118.185 Y199.02 E59.43301
G1 X117.85 Y199.445 E59.48415
G1 X117.456 Y199.817 E59.53535
G1 X117.011 Y200.127 E59.5866
G1 X116.526 Y200.368 E59.63778
G1 X116.01 Y200.535 E59.68903
G1 X115.476 Y200.624 E59.74019
G1 X115.137 Y200.64 E59.77226
G1 X107.862 Y200.639 E60.45975
G1 X107.322 Y200.599 E60.51092
G1 X106.794 Y200.48 E60.56207
G1 X106.288 Y200.284 E60.61335
G1 X105.817 Y200.017 E60.66451
G1 X105.39 Y199.683 E60.71574
G1 X105.017 Y199.29 E60.76694
G1 X104.706 Y198.846 E60.81817
G1 X104.464 Y198.361 E60.86939
G1 X104.296 Y197.846 E60.92058
G1 X104.205 Y197.312 E60.97177
G1 X104.188 Y196.975 E61.00366
G1 X104.167 Y190.221 E61.64192
G1 X104.205 Y189.681 E61.69307
G1 X104.323 Y189.152 E61.74429
G1 X104.4 Y188.949 E61.76481
G1 X104.287 Y186.654 E61.98195
G1 X104.301 Y186.113 E62.03309
G1 X104.393 Y185.579 E62.0843
G1 X104.506 Y185.239 E62.11816
G1 X104.186 Y178.619 E62.74448
G1 X104.2 Y178.078 E62.79562
G1 X104.293 Y177.544 E62.84684
G1 X104.405 Y177.208 E62.88031
G1 X104.084 Y170.616 E63.50399
G1 X104.098 Y170.074 E63.55523
G1 X104.191 Y169.54 E63.60645
G1 X104.304 Y169.2 E63.64031
G1 X103.982 Y162.555 E64.269
G1 X103.996 Y162.013 E64.32023
G1 X104.089 Y161.479 E64.37146
G1 X104.2 Y161.145 E64.40472
G1 X103.878 Y154.528 E65.03076
G1 X103.892 Y153.986 E65.082
G1 X103.985 Y153.452 E65.13322
G1 X104.096 Y153.117 E65.16657
G1 X103.765 Y146.37 E65.80493
G1 X103.779 Y145.829 E65.85607
G1 X103.872 Y145.295 E65.90729
G1 X103.981 Y144.964 E65.94023
G1 X103.663 Y138.384 E66.56276
G1 X103.677 Y137.842 E66.614
G1 X103.77 Y137.308 E66.66522
G1 X103.881 Y136.976 E66.6983
G1 X103.553 Y130.276 E67.33221
G1 X103.567 Y129.735 E67.38335
G1 X103.66 Y129.201 E67.43457
G1 X103.765 Y128.884 E67.46613
G1 X103.422 Y121.973 E68.12002
G1 X96.05 Y121.952 E68.81668
G1 X95.509 Y121.911 E68.86795
